!!!OTL: Maibaum und Abschied
!!!ARE: Europa, Mitteleuropa, Deutschland
!!!SCT: A0114
!!!YEM: Copyright 1995, estate of Helmut Schaffrath.
**kern
*ICvox
*Ivox
!! Mixed meters:  4/2; 6/2
*M6/2
*k[]
*a:
{2a
=1
2a
2a
2a
2b
=2
2.ccn
4b
2a
4gn
4f#
=3
1gn
1e
2r}
{2gn
=4
2a
1b
1a
2g#
=5
*M4/2
1a
2r}
{2a
=6
2a
2a
2a
2b
=7
2.ccn
4b
2a
4gn
4f#
=8
*M6/2
1gn
1e
2r}
{2gn
=9
2a
1b
1a
2g#
=10
*M4/2
1a
2r}
{2b
=11
2b
2b
2b
2a
=12
2.dd
4ccn
2b
4a
4gn
=13
*M6/2
1a
1gn
2r}
{2gn
=14
1b
2gn
1dd
2ccn
=15
*M4/2
2.dd
4ccn
2b
4a
4gn
=16
1a
2r}
{2dd
=17
2a
2a
2a
2b
=18
2.ccn
4b
2a
4gn
4f#
=19
*M6/2
1gn
1e
2r}
{2gn
=20
2a
1b
1a
2g#
=21
1.a}
==
!!!AGN: Romanze, Ballade, Lied
!! Souterliedekens 1540 ad Ps. 54.
!!!ONB: ESAC (Essen Associative Code) Database: ALTDEU
!!!AMT: irregular
!!!AIN: vox
!!!EED: Helmut Schaffrath
!!!EEV: 1.0
*-
